!! 00000] TT[WS
!!!OTL: Weishengme shoukuren hei dongdong
!!!ARE: Asia, China,ÿShanxi Hequ
!! Ethnic Group: Han
!! WI, 30
!!!SCT: J0032
!!!YEM: Copyright 1995, estate of Helmut Schaffrath.
**kern
*ICvox
*Ivox
*M2/4
*k[f#]
*G:
{8ee
4dd
16ee
16gg
=1
8.b
16a
8g
8e
=2
8b
16b
16dd
8a
16g
16e
=3
2a}
=4
{8ee
4dd
16ee
16gg
=5
8.b
16a
8g
8e
=6
8.b
16dd
8a
16g
16e
=7
2d}
==
!!!AGN: Shange, Shanqu. Qingge
!!!ONB: ESAC (Essen Associative Code) Database: CHINA
!!!AMT: simple duple
!!!AIN: vox
!!!EED: Helmut Schaffrath
!!!EEV: 1.0
*-
